src/images/pen.svg

<svg width="20" height="21" viewBox="0 0 20 21" fill="none" xmlns="http://www.w3.org/2000/svg">
<path d="M3 17H7.24C7.37161 17.0008 7.50207 16.9755 7.62391 16.9258C7.74574 16.876 7.85656 16.8027 7.95 16.71L14.87 9.78L17.71 7C17.8037 6.90704 17.8781 6.79644 17.9289 6.67458C17.9797 6.55272 18.0058 6.42201 18.0058 6.29C18.0058 6.15799 17.9797 6.02728 17.9289 5.90542C17.8781 5.78356 17.8037 5.67296 17.71 5.58L13.47 1.29C13.377 1.19627 13.2664 1.12188 13.1446 1.07111C13.0227 1.02034 12.892 0.994202 12.76 0.994202C12.628 0.994202 12.4973 1.02034 12.3754 1.07111C12.2536 1.12188 12.143 1.19627 12.05 1.29L9.23 4.12L2.29 11.05C2.19732 11.1434 2.12399 11.2543 2.07423 11.3761C2.02446 11.4979 1.99924 11.6284 2 11.76V16C2 16.2652 2.10536 16.5196 2.29289 16.7071C2.48043 16.8946 2.73478 17 3 17ZM12.76 3.41L15.59 6.24L14.17 7.66L11.34 4.83L12.76 3.41ZM4 12.17L9.93 6.24L12.76 9.07L6.83 15H4V12.17ZM19 19H1C0.734784 19 0.48043 19.1054 0.292893 19.2929C0.105357 19.4804 0 19.7348 0 20C0 20.2652 0.105357 20.5196 0.292893 20.7071C0.48043 20.8946 0.734784 21 1 21H19C19.2652 21 19.5196 20.8946 19.7071 20.7071C19.8946 20.5196 20 20.2652 20 20C20 19.7348 19.8946 19.4804 19.7071 19.2929C19.5196 19.1054 19.2652 19 19 19Z" fill="#212329"/>
</svg>

<svg width="20" height="21" fill="none" xmlns="http://www.w3.org/2000/svg"><path d="M3 17h4.24a1 1 0 0 0 .71-.29l6.92-6.93L17.71 7a1 1 0 0 0 0-1.42l-4.24-4.29a1 1 0 0 0-1.42 0L9.23 4.12l-6.94 6.93a1 1 0 0 0-.29.71V16a1 1 0 0 0 1 1zm9.76-13.59 2.83 2.83-1.42 1.42-2.83-2.83 1.42-1.42zM4 12.17l5.93-5.93 2.83 2.83L6.83 15H4v-2.83zM19 19H1a1 1 0 0 0 0 2h18a1 1 0 0 0 0-2z" fill="#212329"/></svg>
